ui/StatusQ/src/assets/img/icons/airdrop.svg

<svg fill="none" height="24" viewBox="0 0 24 24" width="24" xmlns="http://www.w3.org/2000/svg"><path clip-rule="evenodd" d="m12.0001 2.25c-4.94741 0-9.03308 3.68416-9.66523 8.459-.13711 1.0356.29806 1.994.94287 2.6746l7.45186 7.8659c.6903.7286 1.8506.7286 2.5409 0l7.4519-7.8659c.6448-.6806 1.08-1.639.9429-2.6746-.6322-4.77484-4.7179-8.459-9.6652-8.459zm-7.38117 8.9046c-.463-.1389-.75738-.5993-.64562-1.0696.86324-3.63268 4.12994-6.335 8.02679-6.335 3.8968 0 7.1635 2.70231 8.0267 6.3349.1118.4704-.1826.9308-.6456 1.0697-.1763.0529-.3291.0963-.3903.1075-1.3213.2402-3.5252.4879-6.9909.4879-3.46568 0-5.66949-.2477-6.9908-.4879-.06124-.0112-.21397-.0546-.39027-.1075zm.86562 1.7054c-.23908-.0353-.39469.2554-.22848.4308l4.50931 4.7598c.07622.0805.20726-.0043.16506-.1068l-1.75095-4.2523c-.14448-.3509-.47522-.5886-.85331-.621-.61565-.0527-1.23042-.1201-1.84163-.2105zm8.58485 5.0841c-.0422.1025.0888.1873.165.1069l4.5097-4.7602c.1662-.1755.0106-.4661-.2285-.4308-.6113.0904-1.2261.1578-1.8418.2105-.3781.0324-.7089.2701-.8533.621zm.1328-4.2621c.0914-.2221-.0774-.4645-.3175-.4577-.5851.0166-1.2125.0257-1.8847.0257s-1.2996-.0091-1.8848-.0257c-.24005-.0068-.40887.2356-.31742.4577l1.89702 4.6071c.1122.2725.4981.2725.6103 0z" fill="#000" fill-rule="evenodd"/></svg>

<svg width="24" height="24" viewBox="0 0 24 24" fill="none" xmlns="http://www.w3.org/2000/svg">
<path fill-rule="evenodd" clip-rule="evenodd" d="M12.0001 2.25C7.05269 2.25 2.96702 5.93416 2.33487 10.709C2.19776 11.7446 2.63293 12.703 3.27774 13.3836L10.7296 21.2495C11.4199 21.9781 12.5802 21.9781 13.2705 21.2495L20.7224 13.3836C21.3672 12.703 21.8024 11.7446 21.6653 10.709C21.0331 5.93416 16.9474 2.25 12.0001 2.25ZM4.61893 11.1546C4.15593 11.0157 3.86155 10.5553 3.97331 10.085C4.83655 6.45232 8.10325 3.75 12.0001 3.75C15.8969 3.75 19.1636 6.45231 20.0268 10.0849C20.1386 10.5553 19.8442 11.0157 19.3812 11.1546C19.2049 11.2075 19.0521 11.2509 18.9909 11.2621C17.6696 11.5023 15.4657 11.75 12 11.75C8.53432 11.75 6.33051 11.5023 5.0092 11.2621C4.94796 11.2509 4.79523 11.2075 4.61893 11.1546ZM5.48455 12.86C5.24547 12.8247 5.08986 13.1154 5.25607 13.2908L9.76538 18.0506C9.8416 18.1311 9.97264 18.0463 9.93044 17.9438L8.17949 13.6915C8.03501 13.3406 7.70427 13.1029 7.32618 13.0705C6.71053 13.0178 6.09576 12.9504 5.48455 12.86ZM14.0694 17.9441C14.0272 18.0466 14.1582 18.1314 14.2344 18.051L18.7441 13.2908C18.9103 13.1153 18.7547 12.8247 18.5156 12.86C17.9043 12.9504 17.2895 13.0178 16.6738 13.0705C16.2957 13.1029 15.9649 13.3406 15.8205 13.6915L14.0694 17.9441ZM14.2022 13.682C14.2936 13.4599 14.1248 13.2175 13.8847 13.2243C13.2996 13.2409 12.6722 13.25 12 13.25C11.3278 13.25 10.7004 13.2409 10.1152 13.2243C9.87515 13.2175 9.70633 13.4599 9.79778 13.682L11.6948 18.2891C11.807 18.5616 12.1929 18.5616 12.3051 18.2891L14.2022 13.682Z" fill="black"/>
</svg>
